!!!COM: Music21
!!!OTL: waltz_Mrs-Costello
!!!OMV: waltz_Mrs-Costello
**kern
*clefG2
*k[f#]
*G:
*M3/4
=1
4ee
=
4ee
8eeL
8aJ
8bL
8ddJ
=
4ee
8eeL
8ff#J
8ggL
8eeJ
=
8ddL
8bJ
8ddL
8eeJ
8bL
8aJ
=
4g
4e
4e
=
4g
4g
8aL
8bJ
=
8ddL
8bJ
8eeL
8ddJ
8eeL
8ff#J
=
8ggL
8aaJ
8bbL
8aaJ
8ggL
8eeJ
!!linebreak:original
=
8ggL
8eeJ
4dd
8bL
8aJ
=
2a
4ryy
=||
8ddL
8eeJ
2ryy
=
8ggL
8aaJ
8aaL
8bbJ
8aaL
8ggJ
=
4aa
4aa
8aaL
8eeJ
=
8ggL
8eeJ
8ggL
8aaJ
16bbLL
16aaJ
8ggJ
=
8eeL
8eeJ
4ee
8r
8gg
!!linebreak:original
=
8gL
8aJ
8bL
8gJ
4ee
=
8bL
8ccJ
8ddL
8bJ
8ggL
8ff#J
=
8eeL
8ddJ
8bL
8aJ
4g
=
4ee
4ee
8ddL
8eeJ
=
8ddL
8bJ
8aL
8gJ
4a
=
4a
2a
=
8bL
8ddJ
8bL
8eeJ
8ddL
8bJ
=
4a
8gL
8f#J
8gL
8aJ
!!linebreak:original
=
8ggL
8eeJ
8eeL
8ddJ
8bL
8eeJ
=
2dd
8bL
8aJ
=
4g
8eeL
8bJ
8ddL
8gJ
=
8bL
8aJ
8gL
8eJ
8aL
8bJ
=
2a
4ryy
=||
*-
